X:1
T:Mille fiat'o dolce
T:Mille fiat'o dolce
T:Girolamo Scotto
T:Source : Secondo Libro delle Muse a tre voci---Venetia---G.Scotto---1562. Editor : André Vierendeels (29/05/16).
T:Notes : Original clefs : C3, C4, F4 Editorial accidentals above the staff Original note values have been halved Square brackets indicate ligatures Text by Francesco Petrarcha (Canzoniere) "Quinti toni"
T:b
T:©
T:©
T:©
T:©
T:©
T:©
C:Girolamo Scotto
Z:©
%%score [ 1 2 3 ]
L:1/8
Q:1/4=102
M:2/2
K:F
V:1 treble-8 nm="Tenor 1" snm="T 1"
V:2 treble-8 nm="Tenor 2" snm="T 2"
V:3 bass nm="Bass" snm="B"
V:1
 c8 | _e4 d2 d2 | f6 f2 | e4 d4- | d2 f4 e2 | f4 z4 | z2 c2 d2 e2 |"^b""^b" f3 e/d/ e2 f2 | %8
w: Mil-|le fiat' o|dol- ce|mi- a|_ guer- rie-|ra,|per ha- ver|co' _ _ _ be-|
 d2 c4 B2 |"^-natural" A2 c4 B2 | c3 B A2 G2 | FGAB c2 d2- | de f4 e2 | f2 e2 z2 c2 | d2 e2 f4- | %15
w: gli'oc- chi vo-|stri pa- *||||* ce, v'hag-|gio pro- fert'|
 f2 e2 d4 | c2 f4 e2 | d3 c de f2- | f2 e2 f2 c2 | c2 c2 f3 e | d2 f4 c2 | d2 f4 e2 | d2 f3 e d2 | %23
w: _ il co-|re, m'a voi|non _ _ _ _|_ pia- ce, mi-|rar si bas- *|* so con|la men- te'al-||
 c2 d3 c c2- | c2 B2 c3 d | edef g2 f2 | d2 f4 e2 | f4 z2 d2 | d2 e2 f2 d2- | d2 B2 c2 A2 | %30
w: |* ter- * *|||ra, e|se da lui fors'|_ al- tra don-|
 d3 c B4 | A2 c4 B2 | G2 A2 B2 A2- | AG G4 F2 | G2 B3 cde | f2 e3 d d2- | d2 c2 B2 A2- | AB c4 B2 | %38
w: na _ spe-|ra, fors' al-|tra don- na spe-||ra, spe- * * *||||
 c2 G2 c2 c2 | d2 d2 c2 c2 | d2 e2 f4 | e4 z2 f2 | f2 f2 e2 e2 | f2 d2 e2 f2- | f2 c4 f2- | %45
w: ra,viv' in spe- ran-|za de- bil' e|fal- la- *|ce, mio,|per- che sde- gno|ci- o, ch'a voi|_ dis- pia-|
 f2 ed e4 | f2 c2 d2 B2 | A2 c4 B2 | c2 G2 G2 G2 | B2 F2 B4 | A2 c4 d2 | G2 B4 G2- | G2 c4 B2 | %53
w: |ce, es- ser non|puo gia ma-|i, es- ser non|puo gia ma-|i co- si|com' e- *||
 c2 F4 f2- | f2 e2 f4 | d4 c4 | c8 |] %57
w: ra, com' e-|||ra.|
V:2
 A8 | G4 B4 | A4 B2 F2 | G2 A2 B4 | A4 G4 |"^b" F2 D2 E2 F2 | G3 A B2 c2- | c2 B2 c3 B/A/ | %8
w: Mil-|le fiat'|o dol- ce|mi- a guer-|rie- *|ra, per ha- ver|co' _ _ be-|* gli'oc- * * *|
 B2 F2 F2 F2 | F3 E D4 | z2 C2 D2 E2 | F6 B2- | B2 A2 G4 | F2 c2 c2 A2- | AB c3 B/A/ B2 | %15
w: chi vo- stri pa-|ce, _ _|v'hag- gio pro-|fert' il|_ co- *|re, m'a voi non|_ _ pia- * * *|
 c2 G3 A B2- | B2 A2 B2 c2 | G4 z4 | z4 z2 A2 | A2 A2 A3 A | B2 d2 c2 A2 | B2 FG AB c2- | %22
w: ce, m'a _ voi|_ non pia- *|ce,|mi-|rar si bas- so|con la men- te'al-|te- * * * * *|
 c2 B2 A4- | A4 z4 | z4 z2 G2 | G2 c2 B2 A2- | A2 B2 G4 | F2 B2 A2 A2 | B2 G2 F2 B2- | BAGF E2 F2 | %30
w: * * ra,|_|e|se da lui fors'-||* al- tra don-|na spe- * *||
 D2 F4 E2 | F3 E D4 | E4 z4 | z8 | z2 D2 G2 G2 | A2 A2 G2 D2 | E4 F4- | F2 E2 D4 | C3 D E2 F2- | %39
w: ||ra,||viv' in spe-|ran- za de- *|bil' e|_ fal- la-||
 F2 G2 A3 G | AB c4 B2 | c2 G2 c2 c2 | d2 d2 c4 | B2 A2 G2 c2- | c2 BA G2 A2 | B4 A2 G2- | %46
w: ||ce, mio, per- che|sde- gno ci-|o, ch'a voi dis-|* pia- * * *||
 GF F4 E2 | F3 E D4 | E8 | z2 D2 D2 D2 | F2 C2 F4 | E2 D2 G3 F | E2 F2 D4 | C4 D2 A2 | G4 F2 A2 | %55
w: ||ce,|es- ser non|puo gia ma-|i co- si _|_ com' e-|ra, gia ma-|i co- si|
 B4 G4 | A8 |] %57
w: com' e-|ra.|
V:3
 F,8 |"^b" C,4 G,2 G,2 | D,2 F,2 B,,2 D,2- | D,2 C,2 B,,2 G,,2 | D,4 z4 | z2 B,,2 C,2 D,2 | %6
w: Mil-|le fiat' o|dol- ce mi- a|_ guer- rie- *|ra,|per ha- ver|
"^b" E,4 D,2 C,2 | D,4 C,2 F,,2 | G,,2 A,,2 B,,4 | F,,4 G,,4 | C,4 z4 | z8 | z4 z2 C,2 | %13
w: co' be- gli'oc-|* chi vo-|stri pa- *|ce, pa-|ce,||v'hag-|
 D,2 E,2 F,4- | F,2 E,2 D,4 | C,4 G,4 | z2 F,2 G,2 A,2 | B,6 A,2 | G,4 F,4- | F,4 D,4 | B,,4 F,4 | %21
w: gio pro- fert'|_ il co-|* re,|ma voi non|pia- *|* ce,|_ mi-|rar si|
 B,,4 F,,2 A,,2 | B,,3 C, D,3 E, | F,2 D,2 E,2 F,2 | D,4 C,4- | C,2 C,2 G,,2 D,2- | D,2 B,,2 C,4 | %27
w: bas- so con|la- * * *|men- te'al- * te-|ra, la|_ men- te'al- te-|* * ra,|
 z2 D,2 D,2 D,2 | B,,2 C,2 D,4 | G,,4 A,,2 F,,2 | B,,3 A,, G,,4 | F,,4 z2 G,,2 | C,2 C,2 D,2 D,2 | %33
w: e se da|lui fors' al-|tra don- na|spe- * *|ra, viv'|in spe- ran- za|
 C,3 B,, A,,4 | G,,6 G,,2 | F,,2 C,4 B,,2 | A,,4 D,4 | A,,4 B,,2 G,,2 | A,,2 C,4 F,,2 | %39
w: de- bi- le,|de- bil'|e fal- la-||* ce, de-|bil' e fal-|
 B,,4 F,,2 F,2- | F,2 E,2 D,4 | C,3 D, E,2 F,2 | D,E,F,G, A,4 | D,4 z2 F,2 | F,2 F,2 E,2 F,2 | %45
w: la- ce, e|_ fal- la-|||ce, mio,|per- che sde- gno|
 B,,4 C,4 | B,,2 A,,2 G,,4 | F,,4 G,,4 | C,4 C,2 C,2 | B,,2 B,,2 G,,4 | F,,3 G,, A,,2 B,,2 | %51
w: ci- o,|ch'a voi dis-|pia- ce,|es- ser non|puo gia ma-|i co- si com'|
 C,2 B,,2 G,,2 C,2- | C,2 F,,2 G,,4 | A,,4 B,,2 F,,2 | C,4 F,,4 | G,,4 C,4 | F,,8 |] %57
w: e- * ra, co-|* si com'|e- * ra,|co- si|com' e-|ra.|

